<map version="1.0" orientation="orthogonal" width="64" height="40" tilewidth="32" tileheight="32" texture="&lt;null>" world="&lt;null>" bg="test" textureOffsetX="0" textureOffsetY="0">
  <properties>
    <property name="extend" value="{&quot;version&quot;:&quot;0.0.2&quot;,&quot;_dataLayer&quot;:[],&quot;_eventSprite&quot;:[{&quot;go&quot;:&quot;&quot;,&quot;x&quot;:811.5,&quot;width&quot;:100,&quot;scaleX&quot;:1,&quot;height&quot;:100,&quot;scaleY&quot;:1,&quot;type&quot;:&quot;repeat_event&quot;,&quot;y&quot;:765,&quot;name&quot;:&quot;1p&quot;,&quot;other&quot;:&quot;&quot;,&quot;noChange&quot;:false,&quot;poltData&quot;:&quot;bnVsbA==&quot;,&quot;to&quot;:&quot;&quot;,&quot;dialogue&quot;:&quot;left&quot;,&quot;instanceName&quot;:&quot;1p&quot;,&quot;path&quot;:&quot;&quot;,&quot;blendMode&quot;:null},{&quot;go&quot;:&quot;&quot;,&quot;x&quot;:1338.5,&quot;width&quot;:100,&quot;scaleX&quot;:1,&quot;height&quot;:100,&quot;scaleY&quot;:1,&quot;type&quot;:&quot;repeat_event&quot;,&quot;y&quot;:763,&quot;name&quot;:&quot;2p&quot;,&quot;other&quot;:&quot;&quot;,&quot;noChange&quot;:false,&quot;poltData&quot;:&quot;bnVsbA==&quot;,&quot;to&quot;:&quot;&quot;,&quot;dialogue&quot;:&quot;left&quot;,&quot;instanceName&quot;:&quot;2p&quot;,&quot;path&quot;:&quot;&quot;,&quot;blendMode&quot;:null}],&quot;_bottomLayer&quot;:[{&quot;name&quot;:&quot;01_0_003_1_000&quot;,&quot;x&quot;:-20,&quot;other&quot;:&quot;&quot;,&quot;scaleY&quot;:1,&quot;y&quot;:958,&quot;target&quot;:&quot;xinshoucun&quot;,&quot;instanceName&quot;:&quot;&quot;,&quot;scaleX&quot;:1,&quot;rotation&quot;:0},{&quot;name&quot;:&quot;01_0_003_1_000&quot;,&quot;x&quot;:106,&quot;other&quot;:&quot;&quot;,&quot;scaleY&quot;:1,&quot;y&quot;:960,&quot;target&quot;:&quot;xinshoucun&quot;,&quot;instanceName&quot;:&quot;&quot;,&quot;scaleX&quot;:1,&quot;rotation&quot;:0},{&quot;name&quot;:&quot;01_0_003_1_000&quot;,&quot;x&quot;:230,&quot;other&quot;:&quot;&quot;,&quot;scaleY&quot;:1,&quot;y&quot;:960,&quot;target&quot;:&quot;xinshoucun&quot;,&quot;instanceName&quot;:&quot;&quot;,&quot;scaleX&quot;:1,&quot;rotation&quot;:0},{&quot;name&quot;:&quot;01_0_003_1_000&quot;,&quot;x&quot;:356.75,&quot;other&quot;:&quot;&quot;,&quot;scaleY&quot;:1,&quot;y&quot;:958.8,&quot;target&quot;:&quot;xinshoucun&quot;,&quot;instanceName&quot;:&quot;&quot;,&quot;scaleX&quot;:1,&quot;rotation&quot;:0},{&quot;name&quot;:&quot;01_0_003_2_000&quot;,&quot;x&quot;:482.65,&quot;other&quot;:&quot;&quot;,&quot;scaleY&quot;:1,&quot;y&quot;:894.95,&quot;target&quot;:&quot;xinshoucun&quot;,&quot;instanceName&quot;:&quot;&quot;,&quot;scaleX&quot;:1,&quot;rotation&quot;:0},{&quot;name&quot;:&quot;01_0_003_2_000&quot;,&quot;x&quot;:608.55,&quot;other&quot;:&quot;&quot;,&quot;scaleY&quot;:1,&quot;y&quot;:830.5,&quot;target&quot;:&quot;xinshoucun&quot;,&quot;instanceName&quot;:&quot;&quot;,&quot;scaleX&quot;:1,&quot;rotation&quot;:0},{&quot;name&quot;:&quot;01_0_003_1_000&quot;,&quot;x&quot;:735.65,&quot;other&quot;:&quot;&quot;,&quot;scaleY&quot;:1,&quot;y&quot;:829.9,&quot;target&quot;:&quot;xinshoucun&quot;,&quot;instanceName&quot;:&quot;&quot;,&quot;scaleX&quot;:1,&quot;rotation&quot;:0},{&quot;name&quot;:&quot;01_0_003_1_000&quot;,&quot;x&quot;:862.75,&quot;other&quot;:&quot;&quot;,&quot;scaleY&quot;:1,&quot;y&quot;:829.9,&quot;target&quot;:&quot;xinshoucun&quot;,&quot;instanceName&quot;:&quot;&quot;,&quot;scaleX&quot;:1,&quot;rotation&quot;:0},{&quot;name&quot;:&quot;01_0_003_4_000&quot;,&quot;x&quot;:991.7,&quot;other&quot;:&quot;&quot;,&quot;scaleY&quot;:1,&quot;y&quot;:828.7,&quot;target&quot;:&quot;xinshoucun&quot;,&quot;instanceName&quot;:&quot;&quot;,&quot;scaleX&quot;:1,&quot;rotation&quot;:0},{&quot;name&quot;:&quot;01_0_003_2_000&quot;,&quot;x&quot;:1117.6,&quot;other&quot;:&quot;&quot;,&quot;scaleY&quot;:1,&quot;y&quot;:830.5,&quot;target&quot;:&quot;xinshoucun&quot;,&quot;instanceName&quot;:&quot;&quot;,&quot;scaleX&quot;:1,&quot;rotation&quot;:0},{&quot;name&quot;:&quot;01_0_003_1_000&quot;,&quot;x&quot;:1243.5,&quot;other&quot;:&quot;&quot;,&quot;scaleY&quot;:1,&quot;y&quot;:831.7,&quot;target&quot;:&quot;xinshoucun&quot;,&quot;instanceName&quot;:&quot;&quot;,&quot;scaleX&quot;:1,&quot;rotation&quot;:0},{&quot;name&quot;:&quot;01_0_003_1_000&quot;,&quot;x&quot;:1371.25,&quot;other&quot;:&quot;&quot;,&quot;scaleY&quot;:1,&quot;y&quot;:831.1,&quot;target&quot;:&quot;xinshoucun&quot;,&quot;instanceName&quot;:&quot;&quot;,&quot;scaleX&quot;:1,&quot;rotation&quot;:0},{&quot;name&quot;:&quot;01_0_003_4_000&quot;,&quot;x&quot;:1497.1,&quot;other&quot;:&quot;&quot;,&quot;scaleY&quot;:1,&quot;y&quot;:831.1,&quot;target&quot;:&quot;xinshoucun&quot;,&quot;instanceName&quot;:&quot;&quot;,&quot;scaleX&quot;:1,&quot;rotation&quot;:0},{&quot;name&quot;:&quot;01_0_003_4_000&quot;,&quot;x&quot;:1623.65,&quot;other&quot;:&quot;&quot;,&quot;scaleY&quot;:1,&quot;y&quot;:896.15,&quot;target&quot;:&quot;xinshoucun&quot;,&quot;instanceName&quot;:&quot;&quot;,&quot;scaleX&quot;:1,&quot;rotation&quot;:0},{&quot;name&quot;:&quot;01_0_003_1_000&quot;,&quot;x&quot;:1749.55,&quot;other&quot;:&quot;&quot;,&quot;scaleY&quot;:1,&quot;y&quot;:960,&quot;target&quot;:&quot;xinshoucun&quot;,&quot;instanceName&quot;:&quot;&quot;,&quot;scaleX&quot;:1,&quot;rotation&quot;:0},{&quot;name&quot;:&quot;01_0_003_1_000&quot;,&quot;x&quot;:1875.45,&quot;other&quot;:&quot;&quot;,&quot;scaleY&quot;:1,&quot;y&quot;:960.6,&quot;target&quot;:&quot;xinshoucun&quot;,&quot;instanceName&quot;:&quot;&quot;,&quot;scaleX&quot;:1,&quot;rotation&quot;:0},{&quot;name&quot;:&quot;01_0_003_1_000&quot;,&quot;x&quot;:2000.75,&quot;other&quot;:&quot;&quot;,&quot;scaleY&quot;:1,&quot;y&quot;:959.4,&quot;target&quot;:&quot;xinshoucun&quot;,&quot;instanceName&quot;:&quot;&quot;,&quot;scaleX&quot;:1,&quot;rotation&quot;:0},{&quot;name&quot;:&quot;01_0_003_1_000&quot;,&quot;x&quot;:-5.7,&quot;other&quot;:&quot;&quot;,&quot;scaleY&quot;:1,&quot;y&quot;:612.45,&quot;target&quot;:&quot;xinshoucun&quot;,&quot;instanceName&quot;:&quot;&quot;,&quot;scaleX&quot;:1,&quot;rotation&quot;:0},{&quot;name&quot;:&quot;01_0_003_1_000&quot;,&quot;x&quot;:117.5,&quot;other&quot;:&quot;&quot;,&quot;scaleY&quot;:1,&quot;y&quot;:612.45,&quot;target&quot;:&quot;xinshoucun&quot;,&quot;instanceName&quot;:&quot;&quot;,&quot;scaleX&quot;:1,&quot;rotation&quot;:0},{&quot;name&quot;:&quot;01_0_003_4_000&quot;,&quot;x&quot;:240.65,&quot;other&quot;:&quot;&quot;,&quot;scaleY&quot;:1,&quot;y&quot;:616.05,&quot;target&quot;:&quot;xinshoucun&quot;,&quot;instanceName&quot;:&quot;&quot;,&quot;scaleX&quot;:1,&quot;rotation&quot;:0},{&quot;name&quot;:&quot;01_0_003_1_000&quot;,&quot;x&quot;:1926.1,&quot;other&quot;:&quot;&quot;,&quot;scaleY&quot;:1,&quot;y&quot;:634.15,&quot;target&quot;:&quot;xinshoucun&quot;,&quot;instanceName&quot;:&quot;&quot;,&quot;scaleX&quot;:1,&quot;rotation&quot;:0},{&quot;name&quot;:&quot;01_0_003_1_000&quot;,&quot;x&quot;:1802.05,&quot;other&quot;:&quot;&quot;,&quot;scaleY&quot;:1,&quot;y&quot;:636,&quot;target&quot;:&quot;xinshoucun&quot;,&quot;instanceName&quot;:&quot;&quot;,&quot;scaleX&quot;:1,&quot;rotation&quot;:0},{&quot;name&quot;:&quot;01_0_003_2_000&quot;,&quot;x&quot;:1679.8,&quot;other&quot;:&quot;&quot;,&quot;scaleY&quot;:1,&quot;y&quot;:639.7,&quot;target&quot;:&quot;xinshoucun&quot;,&quot;instanceName&quot;:&quot;&quot;,&quot;scaleX&quot;:1,&quot;rotation&quot;:0}],&quot;_topLayer&quot;:[],&quot;hit_layer&quot;:[],&quot;layers&quot;:[{&quot;name&quot;:&quot;数据层（不可选）&quot;,&quot;type&quot;:&quot;data&quot;,&quot;id&quot;:&quot;_dataLayer&quot;},{&quot;name&quot;:&quot;事件层（不可选）&quot;,&quot;type&quot;:&quot;event&quot;,&quot;id&quot;:&quot;_eventSprite&quot;},{&quot;name&quot;:&quot;装饰层1&quot;,&quot;type&quot;:&quot;scenery&quot;,&quot;id&quot;:&quot;_topLayer&quot;},{&quot;name&quot;:&quot;互动层（原生）&quot;,&quot;type&quot;:&quot;npc&quot;,&quot;id&quot;:&quot;_npcLayer&quot;},{&quot;name&quot;:&quot;装饰层2&quot;,&quot;type&quot;:&quot;scenery&quot;,&quot;id&quot;:&quot;_bottomLayer&quot;},{&quot;name&quot;:&quot;hit_layer&quot;,&quot;type&quot;:&quot;map&quot;,&quot;id&quot;:&quot;hit_layer&quot;}],&quot;scenery&quot;:[{&quot;path&quot;:&quot;scenery/xinshoucun.xml&quot;,&quot;name&quot;:&quot;xinshoucun&quot;}],&quot;_npcLayer&quot;:[]}"/>
  </properties>
  <objectgroup name="hit_layer" width="64" height="40">
    <properties/>
    <object x="-7" y="646">
      <properties>
        <property name="lines" value="[]"/>
        <property name="draw_mode" value="auto"/>
        <property name="mode" value="not_visible_stes"/>
      </properties>
      <polygon points="0,0 237.05,5.55 368.15,79.95 360.7,131.75 12.55,74.35"/>
    </object>
    <object x="1688" y="814">
      <properties>
        <property name="lines" value="[]"/>
        <property name="mode" value="not_visible_stes"/>
      </properties>
      <polygon points="0,0 -9.25,-70.35 130.55,-141.75 369.5,-143.6 367.65,-75.1"/>
    </object>
    <object x="-12" y="990">
      <properties>
        <property name="lines" value="[]"/>
        <property name="draw_mode" value="auto"/>
        <property name="mode" value="not_penetrate"/>
      </properties>
      <polygon points="0,0 494.45,0 749.05,-119.6 1017.6,-117.75 1128.7,-58.5 1254.65,-123.25 1504.65,-119.6 1767.65,13.75 2138,10 2143.55,319.25 -32.45,456.3"/>
    </object>
  </objectgroup>
</map>