<map version="1.0" orientation="orthogonal" width="64" height="32" tilewidth="32" tileheight="32" texture="&lt;null>" world="&lt;null>" bg="test" textureOffsetX="0" textureOffsetY="0">
  <properties>
    <property name="extend" value="{&quot;version&quot;:&quot;0.0.2&quot;,&quot;_npcLayer&quot;:[],&quot;diji&quot;:[{&quot;name&quot;:&quot;03_0_001_6_000&quot;,&quot;x&quot;:-4.85,&quot;pingpu&quot;:true,&quot;y&quot;:643.8,&quot;target&quot;:&quot;shenlin&quot;,&quot;instanceName&quot;:&quot;&quot;,&quot;scaleY&quot;:-16.03893457122934,&quot;other&quot;:&quot;&quot;,&quot;scaleX&quot;:-16.03893457122934,&quot;rotation&quot;:179.6720728423862},{&quot;name&quot;:&quot;03_0_001_2_000&quot;,&quot;x&quot;:480.45,&quot;pingpu&quot;:false,&quot;y&quot;:561.55,&quot;target&quot;:&quot;shenlin&quot;,&quot;instanceName&quot;:&quot;&quot;,&quot;scaleY&quot;:1,&quot;other&quot;:&quot;&quot;,&quot;scaleX&quot;:1,&quot;rotation&quot;:0},{&quot;name&quot;:&quot;03_0_001_3_000&quot;,&quot;x&quot;:605.45,&quot;pingpu&quot;:false,&quot;y&quot;:564.45,&quot;target&quot;:&quot;shenlin&quot;,&quot;instanceName&quot;:&quot;&quot;,&quot;scaleY&quot;:1,&quot;other&quot;:&quot;&quot;,&quot;scaleX&quot;:1,&quot;rotation&quot;:0},{&quot;name&quot;:&quot;03_0_001_3_000&quot;,&quot;x&quot;:730.45,&quot;pingpu&quot;:false,&quot;y&quot;:564.55,&quot;target&quot;:&quot;shenlin&quot;,&quot;instanceName&quot;:&quot;&quot;,&quot;scaleY&quot;:1,&quot;other&quot;:&quot;&quot;,&quot;scaleX&quot;:1,&quot;rotation&quot;:0},{&quot;name&quot;:&quot;03_0_001_3_000&quot;,&quot;x&quot;:855.45,&quot;pingpu&quot;:false,&quot;y&quot;:567.4,&quot;target&quot;:&quot;shenlin&quot;,&quot;instanceName&quot;:&quot;&quot;,&quot;scaleY&quot;:1,&quot;other&quot;:&quot;&quot;,&quot;scaleX&quot;:1,&quot;rotation&quot;:0},{&quot;name&quot;:&quot;03_0_001_3_000&quot;,&quot;x&quot;:977.5,&quot;pingpu&quot;:false,&quot;y&quot;:568.9,&quot;target&quot;:&quot;shenlin&quot;,&quot;instanceName&quot;:&quot;&quot;,&quot;scaleY&quot;:1,&quot;other&quot;:&quot;&quot;,&quot;scaleX&quot;:1,&quot;rotation&quot;:0},{&quot;name&quot;:&quot;03_0_001_3_000&quot;,&quot;x&quot;:1098.1,&quot;pingpu&quot;:false,&quot;y&quot;:570.3,&quot;target&quot;:&quot;shenlin&quot;,&quot;instanceName&quot;:&quot;&quot;,&quot;scaleY&quot;:1,&quot;other&quot;:&quot;&quot;,&quot;scaleX&quot;:1,&quot;rotation&quot;:0},{&quot;name&quot;:&quot;03_0_001_3_000&quot;,&quot;x&quot;:1226.05,&quot;pingpu&quot;:false,&quot;y&quot;:571.8,&quot;target&quot;:&quot;shenlin&quot;,&quot;instanceName&quot;:&quot;&quot;,&quot;scaleY&quot;:1,&quot;other&quot;:&quot;&quot;,&quot;scaleX&quot;:1,&quot;rotation&quot;:0},{&quot;name&quot;:&quot;03_0_001_3_000&quot;,&quot;x&quot;:1349.55,&quot;pingpu&quot;:false,&quot;y&quot;:573.3,&quot;target&quot;:&quot;shenlin&quot;,&quot;instanceName&quot;:&quot;&quot;,&quot;scaleY&quot;:1,&quot;other&quot;:&quot;&quot;,&quot;scaleX&quot;:1,&quot;rotation&quot;:0},{&quot;name&quot;:&quot;03_0_001_3_000&quot;,&quot;x&quot;:1467.15,&quot;pingpu&quot;:false,&quot;y&quot;:573.3,&quot;target&quot;:&quot;shenlin&quot;,&quot;instanceName&quot;:&quot;&quot;,&quot;scaleY&quot;:1,&quot;other&quot;:&quot;&quot;,&quot;scaleX&quot;:1,&quot;rotation&quot;:0},{&quot;name&quot;:&quot;03_0_001_3_000&quot;,&quot;x&quot;:1586.3,&quot;pingpu&quot;:false,&quot;y&quot;:576.25,&quot;target&quot;:&quot;shenlin&quot;,&quot;instanceName&quot;:&quot;&quot;,&quot;scaleY&quot;:1,&quot;other&quot;:&quot;&quot;,&quot;scaleX&quot;:1,&quot;rotation&quot;:0},{&quot;name&quot;:&quot;03_0_001_3_000&quot;,&quot;x&quot;:1706.9,&quot;pingpu&quot;:false,&quot;y&quot;:576.25,&quot;target&quot;:&quot;shenlin&quot;,&quot;instanceName&quot;:&quot;&quot;,&quot;scaleY&quot;:1,&quot;other&quot;:&quot;&quot;,&quot;scaleX&quot;:1,&quot;rotation&quot;:0},{&quot;name&quot;:&quot;03_0_001_3_000&quot;,&quot;x&quot;:1828.95,&quot;pingpu&quot;:false,&quot;y&quot;:574.75,&quot;target&quot;:&quot;shenlin&quot;,&quot;instanceName&quot;:&quot;&quot;,&quot;scaleY&quot;:1,&quot;other&quot;:&quot;&quot;,&quot;scaleX&quot;:1,&quot;rotation&quot;:0},{&quot;name&quot;:&quot;03_0_001_3_000&quot;,&quot;x&quot;:1948.1,&quot;pingpu&quot;:false,&quot;y&quot;:574.65,&quot;target&quot;:&quot;shenlin&quot;,&quot;instanceName&quot;:&quot;&quot;,&quot;scaleY&quot;:1,&quot;other&quot;:&quot;&quot;,&quot;scaleX&quot;:1,&quot;rotation&quot;:0}],&quot;_topLayer&quot;:[],&quot;hit_layer&quot;:[],&quot;_bottomLayer&quot;:[{&quot;name&quot;:&quot;03_0_001_2_000&quot;,&quot;x&quot;:-7.75,&quot;pingpu&quot;:false,&quot;y&quot;:551.25,&quot;target&quot;:&quot;shenlin&quot;,&quot;instanceName&quot;:&quot;&quot;,&quot;scaleY&quot;:1,&quot;other&quot;:&quot;&quot;,&quot;scaleX&quot;:1,&quot;rotation&quot;:0},{&quot;name&quot;:&quot;03_0_001_2_000&quot;,&quot;x&quot;:117.2,&quot;pingpu&quot;:false,&quot;y&quot;:554.2,&quot;target&quot;:&quot;shenlin&quot;,&quot;instanceName&quot;:&quot;&quot;,&quot;scaleY&quot;:1,&quot;other&quot;:&quot;&quot;,&quot;scaleX&quot;:1,&quot;rotation&quot;:0},{&quot;name&quot;:&quot;03_0_001_2_000&quot;,&quot;x&quot;:240.7,&quot;pingpu&quot;:false,&quot;y&quot;:557.15,&quot;target&quot;:&quot;shenlin&quot;,&quot;instanceName&quot;:&quot;&quot;,&quot;scaleY&quot;:1,&quot;other&quot;:&quot;&quot;,&quot;scaleX&quot;:1,&quot;rotation&quot;:0},{&quot;name&quot;:&quot;03_0_001_2_000&quot;,&quot;x&quot;:364.25,&quot;pingpu&quot;:false,&quot;y&quot;:558.55,&quot;target&quot;:&quot;shenlin&quot;,&quot;instanceName&quot;:&quot;&quot;,&quot;scaleY&quot;:1,&quot;other&quot;:&quot;&quot;,&quot;scaleX&quot;:1,&quot;rotation&quot;:0},{&quot;name&quot;:&quot;03_0_002_0_000&quot;,&quot;x&quot;:490.7,&quot;pingpu&quot;:false,&quot;y&quot;:435.05,&quot;target&quot;:&quot;shenlin&quot;,&quot;instanceName&quot;:&quot;&quot;,&quot;scaleY&quot;:1,&quot;other&quot;:&quot;&quot;,&quot;scaleX&quot;:1,&quot;rotation&quot;:0},{&quot;name&quot;:&quot;03_0_002_1_000&quot;,&quot;x&quot;:1337.8,&quot;pingpu&quot;:false,&quot;y&quot;:443.9,&quot;target&quot;:&quot;shenlin&quot;,&quot;instanceName&quot;:&quot;&quot;,&quot;scaleY&quot;:1,&quot;other&quot;:&quot;&quot;,&quot;scaleX&quot;:1,&quot;rotation&quot;:0},{&quot;name&quot;:&quot;03_0_001_0_000&quot;,&quot;x&quot;:1278.9,&quot;pingpu&quot;:false,&quot;y&quot;:445.35,&quot;target&quot;:&quot;shenlin&quot;,&quot;instanceName&quot;:&quot;&quot;,&quot;scaleY&quot;:1,&quot;other&quot;:&quot;&quot;,&quot;scaleX&quot;:1,&quot;rotation&quot;:0},{&quot;name&quot;:&quot;03_0_001_1_000&quot;,&quot;x&quot;:739.25,&quot;pingpu&quot;:false,&quot;y&quot;:438,&quot;target&quot;:&quot;shenlin&quot;,&quot;instanceName&quot;:&quot;&quot;,&quot;scaleY&quot;:1,&quot;other&quot;:&quot;&quot;,&quot;scaleX&quot;:1,&quot;rotation&quot;:0},{&quot;name&quot;:&quot;03_0_001_6_000&quot;,&quot;x&quot;:664.25,&quot;pingpu&quot;:false,&quot;y&quot;:560.05,&quot;target&quot;:&quot;shenlin&quot;,&quot;instanceName&quot;:&quot;&quot;,&quot;scaleY&quot;:1,&quot;other&quot;:&quot;&quot;,&quot;scaleX&quot;:1,&quot;rotation&quot;:0},{&quot;name&quot;:&quot;03_0_001_6_000&quot;,&quot;x&quot;:1295.15,&quot;pingpu&quot;:false,&quot;y&quot;:564.45,&quot;target&quot;:&quot;shenlin&quot;,&quot;instanceName&quot;:&quot;&quot;,&quot;scaleY&quot;:1,&quot;other&quot;:&quot;&quot;,&quot;scaleX&quot;:1,&quot;rotation&quot;:0},{&quot;name&quot;:&quot;03_0_001_7_000&quot;,&quot;x&quot;:1314.25,&quot;pingpu&quot;:false,&quot;y&quot;:579.15,&quot;target&quot;:&quot;shenlin&quot;,&quot;instanceName&quot;:&quot;&quot;,&quot;scaleY&quot;:1,&quot;other&quot;:&quot;&quot;,&quot;scaleX&quot;:1,&quot;rotation&quot;:0}],&quot;scenery&quot;:[{&quot;path&quot;:&quot;scenery/shenlin.xml&quot;,&quot;name&quot;:&quot;shenlin&quot;}],&quot;_eventSprite&quot;:[{&quot;go&quot;:&quot;&quot;,&quot;x&quot;:712.65,&quot;width&quot;:100,&quot;scaleX&quot;:1,&quot;height&quot;:100,&quot;scaleY&quot;:1,&quot;type&quot;:&quot;repeat_event&quot;,&quot;y&quot;:376.5,&quot;name&quot;:&quot;1p&quot;,&quot;dialogue&quot;:&quot;left&quot;,&quot;to&quot;:&quot;&quot;,&quot;blendMode&quot;:null,&quot;instanceName&quot;:&quot;1p&quot;,&quot;poltData&quot;:&quot;bnVsbA==&quot;,&quot;noChange&quot;:false,&quot;path&quot;:&quot;&quot;,&quot;other&quot;:&quot;&quot;},{&quot;go&quot;:&quot;&quot;,&quot;x&quot;:1274.2,&quot;width&quot;:100,&quot;scaleX&quot;:1,&quot;height&quot;:100,&quot;scaleY&quot;:1,&quot;type&quot;:&quot;repeat_event&quot;,&quot;y&quot;:377.45,&quot;name&quot;:&quot;2p&quot;,&quot;dialogue&quot;:&quot;left&quot;,&quot;to&quot;:&quot;&quot;,&quot;blendMode&quot;:null,&quot;instanceName&quot;:&quot;2p&quot;,&quot;poltData&quot;:&quot;bnVsbA==&quot;,&quot;noChange&quot;:false,&quot;path&quot;:&quot;&quot;,&quot;other&quot;:&quot;&quot;}],&quot;_dataLayer&quot;:[],&quot;layers&quot;:[{&quot;name&quot;:&quot;数据层（不可选）&quot;,&quot;type&quot;:&quot;data&quot;,&quot;id&quot;:&quot;_dataLayer&quot;},{&quot;name&quot;:&quot;事件层（不可选）&quot;,&quot;type&quot;:&quot;event&quot;,&quot;id&quot;:&quot;_eventSprite&quot;},{&quot;name&quot;:&quot;装饰层1&quot;,&quot;type&quot;:&quot;scenery&quot;,&quot;id&quot;:&quot;_topLayer&quot;},{&quot;name&quot;:&quot;hit_layer&quot;,&quot;type&quot;:&quot;map&quot;,&quot;id&quot;:&quot;hit_layer&quot;},{&quot;name&quot;:&quot;互动层（原生）&quot;,&quot;type&quot;:&quot;npc&quot;,&quot;id&quot;:&quot;_npcLayer&quot;},{&quot;name&quot;:&quot;装饰层2&quot;,&quot;type&quot;:&quot;scenery&quot;,&quot;id&quot;:&quot;_bottomLayer&quot;},{&quot;name&quot;:&quot;diji&quot;,&quot;type&quot;:&quot;scenery&quot;,&quot;id&quot;:&quot;diji&quot;}]}"/>
  </properties>
  <objectgroup name="hit_layer" width="64" height="40">
    <properties/>
    <object x="-10" y="591">
      <properties>
        <property name="mode" value="not_penetrate"/>
        <property name="lines" value="[]"/>
      </properties>
      <polygon points="0,0 510.4,5.199999999999932 753.75,-118.05000000000001 804.8,-121.19999999999999 804.8,60.049999999999955 819.4,277.79999999999995 -15,323.6"/>
    </object>
    <object x="698" y="628">
      <properties>
        <property name="mode" value="not_penetrate"/>
        <property name="lines" value="[]"/>
      </properties>
      <polygon points="0,0 7.2999999999999545,-36.44999999999993 629.05,-22.75 649.9000000000001,114.75 -9.450000000000045,105.35000000000002"/>
    </object>
    <object x="1295" y="478">
      <properties>
        <property name="mode" value="not_penetrate"/>
        <property name="lines" value="[]"/>
      </properties>
      <polygon points="0,0 4.2000000000000455,152.10000000000002 157.04999999999995,391.79999999999995 786.25,425.15 783.1500000000001,135.54999999999995 313.3499999999999,142.85000000000002 51.90000000000009,-5.050000000000011"/>
    </object>
  </objectgroup>
</map>